Newaita-dark/apps/24/com.github.lainsce.coin.svg

<svg height="24" viewBox="0 0 24 24" width="24" xmlns="http://www.w3.org/2000/svg" xmlns:xlink="http://www.w3.org/1999/xlink"><linearGradient id="a"><stop offset="0" stop-opacity=".313726"/><stop offset=".222222" stop-opacity=".27451"/><stop offset="1" stop-opacity="0"/></linearGradient><radialGradient id="b" cx="450.908936" cy="189.579361" gradientTransform="matrix(.00000013 -.0585994 -.105479 -.00000008 33.392364 47.696497)" gradientUnits="userSpaceOnUse" r="21.166656" xlink:href="#a"/><radialGradient id="c" cx="450.908936" cy="189.579361" gradientTransform="matrix(-.00000013 .0585994 .105479 .00000008 -9.577589 -5.645612)" gradientUnits="userSpaceOnUse" r="21.166656" xlink:href="#a"/><radialGradient id="d" cx="450.908936" cy="189.579361" gradientTransform="matrix(-.00000013 -.0585994 .105479 -.00000008 -9.577589 47.696497)" gradientUnits="userSpaceOnUse" r="21.166656" xlink:href="#a"/><radialGradient id="e" cx="450.908936" cy="189.579361" gradientTransform="matrix(.00000013 .0585994 -.105479 .00000008 33.392362 -5.645612)" gradientUnits="userSpaceOnUse" r="21.166656" xlink:href="#a"/><linearGradient id="f" gradientTransform="matrix(.01002 0 0 .0468795 9.34904 10.079088)" gradientUnits="userSpaceOnUse" x1="255.323059" x2="255.323044" y1="233.5" y2="254.666656"><stop offset="0" stop-opacity=".27451"/><stop offset="1" stop-opacity="0"/></linearGradient><linearGradient id="g" gradientUnits="userSpaceOnUse" x1="11.907393" x2="11.907393" y1="2.17207774998" y2="21.02545025"><stop offset="0" stop-color="#ffb74d"/><stop offset="1" stop-color="#ffa726"/></linearGradient><linearGradient id="h" gradientTransform="matrix(.0468795 0 0 -.0468795 0 10.079087)" gradientUnits="userSpaceOnUse" x1="254" x2="254" y1="-201.75" y2="136.916672"><stop offset="0" stop-color="#e0e0e0"/><stop offset="1" stop-color="#bdbdbd"/></linearGradient><linearGradient id="i" gradientUnits="userSpaceOnUse" x1="11.907393" x2="11.907393" y1="2.17207774998" y2="21.02545025"><stop offset="0" stop-color="#616161"/><stop offset="1" stop-color="#424242"/></linearGradient><path d="m13.644531 21.027344h1.984375v-.996094h-1.984375zm0 0" fill="url(#b)"/><path d="m10.171875 21.027344h-1.984375v.992187h1.984375zm0 0" fill="url(#c)"/><path d="m10.171875 21.027344h-1.984375v-.996094h1.984375zm0 0" fill="url(#d)"/><path d="m13.644531 21.027344h1.984375v.992187h-1.984375zm0 0" fill="url(#e)"/><path d="m10.171875 20.777344h3.472656v1.242187h-3.472656zm0 0" fill="url(#f)"/><path d="m11.90625 2.171875c5.207031 0 9.429688 4.21875 9.429688 9.425781 0 5.207032-4.222657 9.429688-9.429688 9.429688-5.203125 0-9.425781-4.222656-9.425781-9.429688 0-5.207031 4.222656-9.425781 9.425781-9.425781zm0 0" fill="url(#g)"/><path d="m11.90625 21.027344c-5.222656 0-9.425781-4.207032-9.425781-9.429688 0-.03125 0-.058594 0-.089844.050781 5.179688 4.234375 9.332032 9.425781 9.332032s9.378906-4.152344 9.425781-9.332032c0 .03125.003907.058594.003907.089844 0 5.222656-4.207032 9.429688-9.429688 9.429688zm0 0" fill-opacity=".196078"/><path d="m11.90625 2.171875c-5.222656 0-9.425781 4.203125-9.425781 9.425781v.09375c.050781-5.179687 4.234375-9.335937 9.425781-9.335937s9.378906 4.15625 9.425781 9.335937c0-.03125.003907-.0625.003907-.09375 0-5.222656-4.207032-9.425781-9.429688-9.425781zm0 0" fill="#fff" fill-opacity=".392157"/><path d="m11.90625 2.101562c-5.257812 0-9.496094 4.238282-9.496094 9.496094 0 5.261719 4.238282 9.5 9.496094 9.5 5.261719 0 9.5-4.238281 9.5-9.5 0-5.257812-4.238281-9.496094-9.5-9.496094zm0 .140626c5.1875 0 9.359375 4.171874 9.359375 9.355468 0 5.1875-4.171875 9.359375-9.359375 9.359375-5.183594 0-9.355469-4.171875-9.355469-9.359375 0-5.183594 4.171875-9.355468 9.355469-9.355468zm0 0" fill="#212121"/><path d="m11.90625 19.535156c4.386719 0 7.9375-3.550781 7.9375-7.9375 0-4.382812-3.550781-7.9375-7.9375-7.9375-4.382812 0-7.9375 3.554688-7.9375 7.9375 0 4.386719 3.554688 7.9375 7.9375 7.9375zm0 0" fill="url(#h)"/><path d="m3.972656 11.785156c-.003906.0625-.003906.125-.003906.1875 0 4.394532 3.539062 7.9375 7.9375 7.9375s7.9375-3.542968 7.9375-7.9375c0-.0625 0-.125 0-.1875-.097656 4.3125-3.601562 7.75-7.9375 7.75s-7.835938-3.4375-7.933594-7.75zm0 0" fill="#fff" fill-opacity=".392157"/><path d="m11.90625 3.660156c-4.398438 0-7.9375 3.539063-7.9375 7.9375v.121094c.070312-4.335938 3.582031-7.808594 7.9375-7.808594s7.871094 3.472656 7.9375 7.808594c0-.039062 0-.078125 0-.121094 0-4.398437-3.539062-7.9375-7.9375-7.9375zm0 0" fill-opacity=".235294"/><path d="m253.975747-201.710206c93.574397 0 169.317164 75.742767 169.317164 169.317164 0 93.491072-75.742767 169.317165-169.317164 169.317165-93.491073 0-169.317165-75.826093-169.317165-169.317165 0-93.574397 75.826092-169.317164 169.317165-169.317164zm0 0" fill="none" stroke="#212121" stroke-linecap="round" stroke-width="3" transform="matrix(.0468795 0 0 -.0468795 0 10.079087)"/><path d="m11.410156 6.636719h.992188c.273437 0 .496094.222656.496094.496093v8.929688c0 .277344-.222657.496094-.496094.496094h-.992188c-.273437 0-.496094-.21875-.496094-.496094v-8.929688c0-.273437.222657-.496093.496094-.496093zm0 0" fill="url(#i)"/><path d="m11.410156 6.636719c-.273437 0-.496094.222656-.496094.496093v.25c0-.277343.222657-.496093.496094-.496093h.992188c.277344 0 .496094.21875.496094.496093v-.25c0-.273437-.21875-.496093-.496094-.496093zm0 0" fill="#fff" fill-opacity=".392157"/><path d="m10.914062 16.0625v.375c0 .273438.222657.496094.496094.496094h.992188c.277344 0 .496094-.222656.496094-.496094v-.375c0 .277344-.21875.496094-.496094.496094h-.992188c-.273437 0-.496094-.21875-.496094-.496094zm0 0" fill-opacity=".235294"/><path d="m243.393424-73.430186h21.164645c5.832777 0 10.582323 4.749547 10.582323 10.582323v190.48181c0 5.916101-4.749546 10.582323-10.582323 10.582323h-21.164645c-5.832777 0-10.582323-4.666222-10.582323-10.582323v-190.48181c0-5.832776 4.749546-10.582323 10.582323-10.582323zm0 0" fill="none" stroke="#212121" stroke-linecap="round" stroke-linejoin="round" stroke-width="3" transform="matrix(.0468795 0 0 .0468795 0 10.079087)"/></svg>

<?xml version="1.0" encoding="UTF-8"?>
<svg xmlns="http://www.w3.org/2000/svg" xmlns:xlink="http://www.w3.org/1999/xlink" width="24px" height="24px" viewBox="0 0 24 24" version="1.1">
<defs>
<radialGradient id="radial0" gradientUnits="userSpaceOnUse" cx="450.908936" cy="189.579361" fx="450.908936" fy="189.579361" r="21.166656" gradientTransform="matrix(0.000000130628,-0.0585994,-0.105479,-0.0000000761539,33.392364,47.696497)">
<stop offset="0" style="stop-color:rgb(0%,0%,0%);stop-opacity:0.313726;"/>
<stop offset="0.222222" style="stop-color:rgb(0%,0%,0%);stop-opacity:0.27451;"/>
<stop offset="1" style="stop-color:rgb(0%,0%,0%);stop-opacity:0;"/>
</radialGradient>
<radialGradient id="radial1" gradientUnits="userSpaceOnUse" cx="450.908936" cy="189.579361" fx="450.908936" fy="189.579361" r="21.166656" gradientTransform="matrix(-0.000000130628,0.0585994,0.105479,0.0000000761539,-9.577589,-5.645612)">
<stop offset="0" style="stop-color:rgb(0%,0%,0%);stop-opacity:0.313726;"/>
<stop offset="0.222222" style="stop-color:rgb(0%,0%,0%);stop-opacity:0.27451;"/>
<stop offset="1" style="stop-color:rgb(0%,0%,0%);stop-opacity:0;"/>
</radialGradient>
<radialGradient id="radial2" gradientUnits="userSpaceOnUse" cx="450.908936" cy="189.579361" fx="450.908936" fy="189.579361" r="21.166656" gradientTransform="matrix(-0.000000130628,-0.0585994,0.105479,-0.0000000761539,-9.577589,47.696497)">
<stop offset="0" style="stop-color:rgb(0%,0%,0%);stop-opacity:0.313726;"/>
<stop offset="0.222222" style="stop-color:rgb(0%,0%,0%);stop-opacity:0.27451;"/>
<stop offset="1" style="stop-color:rgb(0%,0%,0%);stop-opacity:0;"/>
</radialGradient>
<radialGradient id="radial3" gradientUnits="userSpaceOnUse" cx="450.908936" cy="189.579361" fx="450.908936" fy="189.579361" r="21.166656" gradientTransform="matrix(0.000000130628,0.0585994,-0.105479,0.0000000761539,33.392362,-5.645612)">
<stop offset="0" style="stop-color:rgb(0%,0%,0%);stop-opacity:0.313726;"/>
<stop offset="0.222222" style="stop-color:rgb(0%,0%,0%);stop-opacity:0.27451;"/>
<stop offset="1" style="stop-color:rgb(0%,0%,0%);stop-opacity:0;"/>
</radialGradient>
<linearGradient id="linear0" gradientUnits="userSpaceOnUse" x1="255.323059" y1="233.5" x2="255.323044" y2="254.666656" gradientTransform="matrix(0.01002,0,0,0.0468795,9.34904,10.079088)">
<stop offset="0" style="stop-color:rgb(0%,0%,0%);stop-opacity:0.27451;"/>
<stop offset="1" style="stop-color:rgb(0%,0%,0%);stop-opacity:0;"/>
</linearGradient>
<linearGradient id="linear1" gradientUnits="userSpaceOnUse" x1="254" y1="-168.666672" x2="254" y2="233.5" gradientTransform="matrix(0.0468795,0,0,0.0468795,0,10.079087)">
<stop offset="0" style="stop-color:rgb(100%,71.764708%,30.19608%);stop-opacity:1;"/>
<stop offset="1" style="stop-color:rgb(100%,65.490198%,14.901961%);stop-opacity:1;"/>
</linearGradient>
<linearGradient id="linear2" gradientUnits="userSpaceOnUse" x1="254" y1="-201.75" x2="254" y2="136.916672" gradientTransform="matrix(0.0468795,0,0,-0.0468795,0,10.079087)">
<stop offset="0" style="stop-color:rgb(87.843138%,87.843138%,87.843138%);stop-opacity:1;"/>
<stop offset="1" style="stop-color:rgb(74.117649%,74.117649%,74.117649%);stop-opacity:1;"/>
</linearGradient>
<linearGradient id="linear3" gradientUnits="userSpaceOnUse" x1="254" y1="-168.666672" x2="254" y2="233.5" gradientTransform="matrix(0.0468795,0,0,0.0468795,0,10.079087)">
<stop offset="0" style="stop-color:rgb(38.039216%,38.039216%,38.039216%);stop-opacity:1;"/>
<stop offset="1" style="stop-color:rgb(25.882354%,25.882354%,25.882354%);stop-opacity:1;"/>
</linearGradient>
</defs>
<g id="surface1">
<path style=" stroke:none;fill-rule:nonzero;fill:url(#radial0);" d="M 13.644531 21.027344 L 15.628906 21.027344 L 15.628906 20.03125 L 13.644531 20.03125 Z M 13.644531 21.027344 "/>
<path style=" stroke:none;fill-rule:nonzero;fill:url(#radial1);" d="M 10.171875 21.027344 L 8.1875 21.027344 L 8.1875 22.019531 L 10.171875 22.019531 Z M 10.171875 21.027344 "/>
<path style=" stroke:none;fill-rule:nonzero;fill:url(#radial2);" d="M 10.171875 21.027344 L 8.1875 21.027344 L 8.1875 20.03125 L 10.171875 20.03125 Z M 10.171875 21.027344 "/>
<path style=" stroke:none;fill-rule:nonzero;fill:url(#radial3);" d="M 13.644531 21.027344 L 15.628906 21.027344 L 15.628906 22.019531 L 13.644531 22.019531 Z M 13.644531 21.027344 "/>
<path style=" stroke:none;fill-rule:nonzero;fill:url(#linear0);" d="M 10.171875 20.777344 L 13.644531 20.777344 L 13.644531 22.019531 L 10.171875 22.019531 Z M 10.171875 20.777344 "/>
<path style=" stroke:none;fill-rule:nonzero;fill:url(#linear1);" d="M 11.90625 2.171875 C 17.113281 2.171875 21.335938 6.390625 21.335938 11.597656 C 21.335938 16.804688 17.113281 21.027344 11.90625 21.027344 C 6.703125 21.027344 2.480469 16.804688 2.480469 11.597656 C 2.480469 6.390625 6.703125 2.171875 11.90625 2.171875 Z M 11.90625 2.171875 "/>
<path style=" stroke:none;fill-rule:nonzero;fill:rgb(0%,0%,0%);fill-opacity:0.196078;" d="M 11.90625 21.027344 C 6.683594 21.027344 2.480469 16.820312 2.480469 11.597656 C 2.480469 11.566406 2.480469 11.539062 2.480469 11.507812 C 2.53125 16.6875 6.714844 20.839844 11.90625 20.839844 C 17.097656 20.839844 21.285156 16.6875 21.332031 11.507812 C 21.332031 11.539062 21.335938 11.566406 21.335938 11.597656 C 21.335938 16.820312 17.128906 21.027344 11.90625 21.027344 Z M 11.90625 21.027344 "/>
<path style=" stroke:none;fill-rule:nonzero;fill:rgb(100%,100%,100%);fill-opacity:0.392157;" d="M 11.90625 2.171875 C 6.683594 2.171875 2.480469 6.375 2.480469 11.597656 C 2.480469 11.628906 2.480469 11.660156 2.480469 11.691406 C 2.53125 6.511719 6.714844 2.355469 11.90625 2.355469 C 17.097656 2.355469 21.285156 6.511719 21.332031 11.691406 C 21.332031 11.660156 21.335938 11.628906 21.335938 11.597656 C 21.335938 6.375 17.128906 2.171875 11.90625 2.171875 Z M 11.90625 2.171875 "/>
<path style=" stroke:none;fill-rule:nonzero;fill:rgb(12.941177%,12.941177%,12.941177%);fill-opacity:1;" d="M 11.90625 2.101562 C 6.648438 2.101562 2.410156 6.339844 2.410156 11.597656 C 2.410156 16.859375 6.648438 21.097656 11.90625 21.097656 C 17.167969 21.097656 21.40625 16.859375 21.40625 11.597656 C 21.40625 6.339844 17.167969 2.101562 11.90625 2.101562 Z M 11.90625 2.242188 C 17.09375 2.242188 21.265625 6.414062 21.265625 11.597656 C 21.265625 16.785156 17.09375 20.957031 11.90625 20.957031 C 6.722656 20.957031 2.550781 16.785156 2.550781 11.597656 C 2.550781 6.414062 6.722656 2.242188 11.90625 2.242188 Z M 11.90625 2.242188 "/>
<path style=" stroke:none;fill-rule:nonzero;fill:url(#linear2);" d="M 11.90625 19.535156 C 16.292969 19.535156 19.84375 15.984375 19.84375 11.597656 C 19.84375 7.214844 16.292969 3.660156 11.90625 3.660156 C 7.523438 3.660156 3.96875 7.214844 3.96875 11.597656 C 3.96875 15.984375 7.523438 19.535156 11.90625 19.535156 Z M 11.90625 19.535156 "/>
<path style=" stroke:none;fill-rule:nonzero;fill:rgb(100%,100%,100%);fill-opacity:0.392157;" d="M 3.972656 11.785156 C 3.96875 11.847656 3.96875 11.910156 3.96875 11.972656 C 3.96875 16.367188 7.507812 19.910156 11.90625 19.910156 C 16.304688 19.910156 19.84375 16.367188 19.84375 11.972656 C 19.84375 11.910156 19.84375 11.847656 19.84375 11.785156 C 19.746094 16.097656 16.242188 19.535156 11.90625 19.535156 C 7.570312 19.535156 4.070312 16.097656 3.972656 11.785156 Z M 3.972656 11.785156 "/>
<path style=" stroke:none;fill-rule:nonzero;fill:rgb(0%,0%,0%);fill-opacity:0.235294;" d="M 11.90625 3.660156 C 7.507812 3.660156 3.96875 7.199219 3.96875 11.597656 C 3.96875 11.640625 3.96875 11.679688 3.96875 11.71875 C 4.039062 7.382812 7.550781 3.910156 11.90625 3.910156 C 16.261719 3.910156 19.777344 7.382812 19.84375 11.71875 C 19.84375 11.679688 19.84375 11.640625 19.84375 11.597656 C 19.84375 7.199219 16.304688 3.660156 11.90625 3.660156 Z M 11.90625 3.660156 "/>
<path style="fill:none;stroke-width:3;stroke-linecap:round;stroke-linejoin:miter;stroke:rgb(12.941177%,12.941177%,12.941177%);stroke-opacity:1;stroke-miterlimit:4;" d="M 253.975747 -201.710206 C 347.550144 -201.710206 423.292911 -125.967439 423.292911 -32.393042 C 423.292911 61.09803 347.550144 136.924123 253.975747 136.924123 C 160.484674 136.924123 84.658582 61.09803 84.658582 -32.393042 C 84.658582 -125.967439 160.484674 -201.710206 253.975747 -201.710206 Z M 253.975747 -201.710206 " transform="matrix(0.0468795,0,0,-0.0468795,0,10.079087)"/>
<path style=" stroke:none;fill-rule:nonzero;fill:url(#linear3);" d="M 11.410156 6.636719 L 12.402344 6.636719 C 12.675781 6.636719 12.898438 6.859375 12.898438 7.132812 L 12.898438 16.0625 C 12.898438 16.339844 12.675781 16.558594 12.402344 16.558594 L 11.410156 16.558594 C 11.136719 16.558594 10.914062 16.339844 10.914062 16.0625 L 10.914062 7.132812 C 10.914062 6.859375 11.136719 6.636719 11.410156 6.636719 Z M 11.410156 6.636719 "/>
<path style=" stroke:none;fill-rule:nonzero;fill:rgb(100%,100%,100%);fill-opacity:0.392157;" d="M 11.410156 6.636719 C 11.136719 6.636719 10.914062 6.859375 10.914062 7.132812 L 10.914062 7.382812 C 10.914062 7.105469 11.136719 6.886719 11.410156 6.886719 L 12.402344 6.886719 C 12.679688 6.886719 12.898438 7.105469 12.898438 7.382812 L 12.898438 7.132812 C 12.898438 6.859375 12.679688 6.636719 12.402344 6.636719 Z M 11.410156 6.636719 "/>
<path style=" stroke:none;fill-rule:nonzero;fill:rgb(0%,0%,0%);fill-opacity:0.235294;" d="M 10.914062 16.0625 L 10.914062 16.4375 C 10.914062 16.710938 11.136719 16.933594 11.410156 16.933594 L 12.402344 16.933594 C 12.679688 16.933594 12.898438 16.710938 12.898438 16.4375 L 12.898438 16.0625 C 12.898438 16.339844 12.679688 16.558594 12.402344 16.558594 L 11.410156 16.558594 C 11.136719 16.558594 10.914062 16.339844 10.914062 16.0625 Z M 10.914062 16.0625 "/>
<path style="fill:none;stroke-width:3;stroke-linecap:round;stroke-linejoin:round;stroke:rgb(12.941177%,12.941177%,12.941177%);stroke-opacity:1;stroke-miterlimit:4;" d="M 243.393424 -73.430186 L 264.558069 -73.430186 C 270.390846 -73.430186 275.140392 -68.680639 275.140392 -62.847863 L 275.140392 127.633947 C 275.140392 133.550048 270.390846 138.21627 264.558069 138.21627 L 243.393424 138.21627 C 237.560647 138.21627 232.811101 133.550048 232.811101 127.633947 L 232.811101 -62.847863 C 232.811101 -68.680639 237.560647 -73.430186 243.393424 -73.430186 Z M 243.393424 -73.430186 " transform="matrix(0.0468795,0,0,0.0468795,0,10.079087)"/>
</g>
</svg>
